X:1
T:Title
%%score { 1 | ( 2 3 ) }
L:1/8
Q:1/4=106
M:4/4
K:F
V:1 treble nm="Grand Piano"
V:2 bass 
V:3 bass 
V:1
 A2 A2 A3 F | A2 B2 A2 F2 | [FA]2 [EG]2 [EG]3 [FA] | [GB]2 [GB]2 A4 | A2 A2 A3 F | A2 B2 A2 F2 | %6
w: Ran~C.~Storey * * *||||||
 G2 A2 B3 [DGB] | [CFA]2 [B,EG]2 [A,F]4 | [Fc]2 [G^c]2 [Fd]3 [^Fc] | [Gc]2 [F=B]2 [E_B]2 [GB]2 | %10
w: ||||
 [Ge]2 [^F_e]2 =e3 d | c2 =B2 [Ec]4 | A2 A2 A3 F | A2 B2 A2 F2 | G2 A2 B3 [DGB] | %15
w: |||||
[M:5/4] [CFA]2 [B,EG]2 [A,F]6 |[M:4/4] [CFA]2 [Fc]2 [Af]3 [Af] | [ce]2 [Bd]2 [Ac]2 A2 | %18
w: |||
 c2 c2 c3 d | [Ec]3 [Ed] c4 | A2 c2 [Af]3 [Af] | [ce]2 [EBd]2 [FAc]2 [FA]2 | %22
w: ||||
 [Fc]2 [_Ec]2 [DB]3 [^CB] | A2 G2 F4 |] %24
w: ||
V:2
 [F,CF]2 [F,CF]2 [F,CF]3 [F,A,] | [F,CF]2 [F,DF]2 [F,CF]2 [F,A,]2 | [C,C]2 [C,C]2 [C,C]3 [C,C] | %3
 [C,C]2 [C,C]2 [F,CF]4 | [F,CF]2 [F,CF]2 [F,CF]3 [F,A,] | [F,CF]2 [F,DF]2 [F,CF]2 [F,A,]2 | %6
 [B,D]2 [A,D^F]2 [G,DG]3[K:bass] B,, | C,2 C,2 F,4 | [F,A,]2 [E,A,]2 [D,A,]3 [D,D] | %9
 [G,D]2 [G,D]2 [C,C]2 [C,C]2 | [C,C]2 [C,C]2[K:treble] [G,CG]3 [G,FG] | %11
 [G,EG]2 [G,DF]2[K:bass] [C,C]4 | [F,CF]2 [F,CF]2 [F,CF]3 [F,A,] | %13
 [F,CF]2 [F,DF]2 [F,CF]2 [F,A,]2 | [B,D]2 [A,D^F]2 [G,DG]3[K:bass] B,, |[M:5/4] C,2 C,2 F,6 | %16
[M:4/4] F,2 [F,A,]2 [F,C]3 [F,C] | [F,D]2 [F,E]2[K:treble] F2 [CF]2 | %18
 [F,A,F]2 [F,A,F]2 [G,B,E]3[K:bass] [G,B,E] | [C,B,]3 [C,B,] [F,A,F]4 | %20
 [F,CF]2 [F,A,F]2 [F,C]3 [F,C] | [F,D]2 F,2 z2 C2 | [F,A,]2 [A,,F,]2 [B,,F,]3 [B,,F,] | %23
 [C,F,C]2 [C,B,C]2 [A,C]4 |] %24
V:3
 x8 | x8 | x8 | x8 | x8 | x8 | x7[K:bass] x | x8 | x8 | x8 | x4[K:treble] x4 | x4[K:bass] x4 | x8 | %13
 x8 | x7[K:bass] x |[M:5/4] x10 |[M:4/4] x8 | z4[K:treble] F,4 | x7[K:bass] x | x8 | x8 | z4 F,4 | %22
 x8 | x8 |] %24

